src/frontend/src/images/status-stale.svg

<svg width="48" height="48" viewBox="0 0 48 48" fill="none" xmlns="http://www.w3.org/2000/svg">
<rect width="48" height="48" rx="8" fill="#474543"/>
<path d="M24 11.75C24.7656 11.75 25.4766 12.1875 25.8594 12.8438L37.6719 32.9688C38.0547 33.6797 38.0547 34.5 37.6719 35.1562C37.2891 35.8672 36.5781 36.25 35.8125 36.25H12.1875C11.3672 36.25 10.6562 35.8672 10.2734 35.1562C9.89062 34.5 9.89062 33.6797 10.2734 32.9688L22.0859 12.8438C22.4688 12.1875 23.1797 11.75 24 11.75ZM24 18.75C23.2344 18.75 22.6875 19.3516 22.6875 20.0625V26.1875C22.6875 26.9531 23.2344 27.5 24 27.5C24.7109 27.5 25.3125 26.9531 25.3125 26.1875V20.0625C25.3125 19.3516 24.7109 18.75 24 18.75ZM25.75 31C25.75 30.0703 24.9297 29.25 24 29.25C23.0156 29.25 22.25 30.0703 22.25 31C22.25 31.9844 23.0156 32.75 24 32.75C24.9297 32.75 25.75 31.9844 25.75 31Z" fill="#E0DEDC"/>
</svg>

<svg xmlns="http://www.w3.org/2000/svg" width="48" height="48" fill="none" viewBox="0 0 48 48"><rect width="48" height="48" fill="#474543" rx="8"/><path fill="#e0dedc" d="M24 11.75c.77 0 1.48.44 1.86 1.1l11.81 20.12c.38.71.38 1.53 0 2.19-.38.7-1.1 1.09-1.86 1.09H12.2a2.1 2.1 0 0 1-1.92-1.1 2.2 2.2 0 0 1 0-2.18L22.1 12.84A2.2 2.2 0 0 1 24 11.75m0 7c-.77 0-1.31.6-1.31 1.31v6.13c0 .76.54 1.31 1.31 1.31a1.3 1.3 0 0 0 1.31-1.31v-6.13c0-.7-.6-1.31-1.31-1.31M25.75 31A1.8 1.8 0 0 0 24 29.25c-.98 0-1.75.82-1.75 1.75 0 .98.77 1.75 1.75 1.75.93 0 1.75-.77 1.75-1.75"/></svg>
